src/lib/packages/icons/src/assets/filled/rotate-left-square.svg

<svg width="24" height="24" viewBox="0 0 24 24" fill="none" xmlns="http://www.w3.org/2000/svg">
<path d="M17.625 3H6.375C4.125 3 3 4.125 3 6.375V17.625C3 19.875 4.125 21 6.375 21H17.625C19.875 21 21 19.875 21 17.625V6.375C21 4.125 19.875 3 17.625 3ZM12 16.752C10.185 16.752 8.55509 15.741 7.74609 14.113C7.56109 13.742 7.71298 13.2919 8.08398 13.1079C8.45698 12.9229 8.90609 13.076 9.09009 13.446C9.64309 14.56 10.758 15.252 12 15.252C13.792 15.252 15.25 13.794 15.25 12.002C15.25 10.21 13.792 8.75195 12 8.75195C11.021 8.75195 10.1221 9.19795 9.51709 9.91895H10.2229C10.6369 9.91895 10.9729 10.2549 10.9729 10.6689C10.9729 11.0829 10.6369 11.4189 10.2229 11.4189H8C7.586 11.4189 7.25 11.0829 7.25 10.6689V8.44702C7.25 8.03302 7.586 7.69702 8 7.69702C8.414 7.69702 8.75 8.03302 8.75 8.44702V8.54492C9.612 7.73592 10.764 7.25293 12 7.25293C14.619 7.25293 16.75 9.38393 16.75 12.0029C16.75 14.6219 14.619 16.752 12 16.752Z" fill="currentColor"/>
</svg>

<svg xmlns="http://www.w3.org/2000/svg" width="24" height="24" fill="none"><path fill="currentColor" d="M17.625 3H6.375C4.125 3 3 4.125 3 6.375v11.25C3 19.875 4.125 21 6.375 21h11.25C19.875 21 21 19.875 21 17.625V6.375C21 4.125 19.875 3 17.625 3ZM12 16.752a4.724 4.724 0 0 1-4.254-2.639.75.75 0 0 1 1.344-.667A3.23 3.23 0 0 0 12 15.252a3.254 3.254 0 0 0 3.25-3.25A3.254 3.254 0 0 0 12 8.752c-.979 0-1.878.446-2.483 1.167h.706a.75.75 0 0 1 0 1.5H8a.75.75 0 0 1-.75-.75V8.447a.75.75 0 0 1 1.5 0v.098A4.748 4.748 0 0 1 12 7.253a4.756 4.756 0 0 1 4.75 4.75A4.755 4.755 0 0 1 12 16.752Z"/></svg>
